!!!!SEGMENT: Gsc2016-Quare_tristis.krn
!!!id: Gsc2016
!!!AGN: Motet
!!!SCT: Merritt (1962)
!!!voices: 4
!!!COM: Mathieu Gascongne
!!!OTL: Quare tristis
**kern	**kern	**kern	**kern
*part4	*part3	*part2	*part1
*staff4	*staff3	*staff2	*staff1
*I"Bassus	*I"Tenor	*I"Altus	*I"Superius
*I'B	*I'T	*I'A	*I'S
*clefF4	*clefGv2	*clefGv2	*clefG2
*k[b-]	*k[b-]	*k[b-]	*k[b-]
*F:	*F:	*F:	*F:
*M2/1	*M2/1	*M2/1	*M2/1
*met(C|)	*met(C|)	*met(C|)	*met(C|)
!!Section: Prima pars: Quare tristis
!!!OMD: Prima pars: Quare tristis
=1	=1	=1	=1
0r	0r	0r	1.a
.	.	.	2a
=2	=2	=2	=2
0r	0r	0r	1a
.	.	.	1a
=3	=3	=3	=3
0r	0r	0r	1g
.	.	.	[1b-y
=4	=4	=4	=4
0r	0r	1.d	1b-]
.	.	.	1a
.	.	2d	.
=5	=5	=5	=5
0r	0r	1d	0f
.	.	1d	.
=6	=6	=6	=6
0r	0r	1c	1.cc
.	.	[1e-X	.
.	.	.	4b-y
.	.	.	4a
=7	=7	=7	=7
0r	0r	1e-]	2.g
.	.	.	4f
.	.	1d	[1b-y
=8	=8	=8	=8
0r	0r	0B-y	2b-]
.	.	.	4a
.	.	.	4g
.	.	.	2f
.	.	.	[2g
=9	=9	=9	=9
0r	1.A	0c	4g]
.	.	.	4f
.	.	.	1f
.	2A	.	2e
=10	=10	=10	=10
0r	1A	0F	1f
.	1A	.	1c
=11	=11	=11	=11
0r	1G	2r	1d
.	.	1B-y	.
.	[1B-y	.	[1d
.	.	4A	.
.	.	4G	.
=12	=12	=12	=12
1.D	1B-]	1.F	2d]
.	.	.	2d
.	1A	.	[1f
2D	.	2G	.
=13	=13	=13	=13
1D	0F	1A	1f]
1D	.	1B-y	1f
=14	=14	=14	=14
1C	1.c	0G	1e
[1E-X	.	.	[1g
.	4B-y	.	.
.	4A	.	.
=15	=15	=15	=15
1E-]	2.G	1r	1g]
.	4F	.	.
1D	[1B-y	[1d	1f
=16	=16	=16	=16
0BB-y	2B-]	2d]	1g
.	4A	2c	.
.	4G	.	.
.	2F	[1B-y	1d
.	[2G	.	.
=17	=17	=17	=17
0C	4G]	2B-]	0e
.	4F	.	.
.	1F	4A	.
.	.	4G	.
.	.	1A	.
.	2E	.	.
=18	=18	=18	=18
[0BB-y	1F	1B-y	0d
.	2r	2r	.
.	2F	[2B-y	.
=19	=19	=19	=19
0BB-]	1G	2B-]	1r
.	.	2B-y	.
.	1B-y	1d	1f
=20	=20	=20	=20
1r	2E-X	2c	2g
.	2G	2B-y	1b-y
1F	1F	1c	.
.	.	.	2a
=21	=21	=21	=21
1G	1E-i	1e-X	2b-y
.	.	.	1g
[1B-y	1r	[1d	.
.	.	.	2f
=22	=22	=22	=22
2B-]	1.G	1d]	1g
2A	.	.	.
[1G	.	2r	[1b-y
.	2A	2d	.
=23	=23	=23	=23
1G]	2.B-y	2d	1b-]
.	.	2G	.
.	4c	.	.
1F	2d	1A	1a
.	[2c	.	.
=24	=24	=24	=24
1.E-X	2c]	1B-y	[0g
.	2B-y	.	.
.	2G	1c	.
2D	2A	.	.
=25	=25	=25	=25
0BB-y	0B-y	[0d	1g]
.	.	.	1f
=26	=26	=26	=26
0r	1r	0d]	0f
.	1B-y	.	.
=27	=27	=27	=27
0D	2.A	1r	1r
.	4G	.	.
.	1A	[1d	[1f
=28	=28	=28	=28
1D	1D	1d]	2f]
.	.	.	2f
1BB-y	[1G	1B-y	2g
.	.	.	[2b-y
=29	=29	=29	=29
0E-X	1G]	3%2G	4b-]
.	.	.	4a
.	.	.	4g
.	.	3%2.B-y	.
.	.	.	4f
.	1G	.	1g
.	.	3c	.
=30	=30	=30	=30
0D	0A	[0d	[0f
=31	=31	=31	=31
0r	1r	0d]	0f]
.	1B-y	.	.
=32	=32	=32	=32
0D	2.A	1r	1r
.	4G	.	.
.	1A	[1d	[1f
=33	=33	=33	=33
1BB-y	1D	1d]	2f]
.	.	.	2f
1GG	[1G	1B-y	2g
.	.	.	[2b-y
=34	=34	=34	=34
0E	1G]	3%2G	4b-]
.	.	.	4a
.	.	.	4g
.	.	3%2.B-y	.
.	.	.	4f
.	1G	.	1g
.	.	3c	.
=35	=35	=35	=35
[0D	0A	0d	0f
=36	=36	=36	=36
0D]	1r	1r	1r
.	1A	1d	[1f
=37	=37	=37	=37
1r	1B-y	1d	1f]
1D	[1A	1d	1f
=38	=38	=38	=38
1F	2A]	1c	0a
.	2B-y	.	.
1F	[1c	[1f	.
=39	=39	=39	=39
0G	1c]	2f]	0b-y
.	.	4e	.
.	.	4d	.
.	1B-y	1e	.
=40	=40	=40	=40
0F	1c	0f	0a
.	2A	.	.
.	[2d	.	.
=41	=41	=41	=41
1D	4d]	2r	1f
.	4c	.	.
.	2A	2d	.
1G	1B-y	2d	2g
.	.	2e	[2b-y
=42	=42	=42	=42
2.F	2c	2f	2b-]
.	2.d	2F	2a
4E	.	.	.
2D	.	2F	2b-y
.	4c	.	.
2C	2e	2G	[2cc
=43	=43	=43	=43
2F	2d	2A	4cc]
.	.	.	4b-y
2G	4c	2G	1b-y
.	4B-y	.	.
1F	1c	1A	.
.	.	.	2a
=44	=44	=44	=44
[0BB-y	0B-y	1F	[0b-y
.	.	2r	.
.	.	2F	.
=45	=45	=45	=45
0BB-]	1r	2F	0b-]
.	.	2F	.
.	1F	[1B-y	.
=46	=46	=46	=46
1r	1F	2B-]	0r
.	.	2A	.
1BB-y	1F	2.B-y	.
.	.	4A	.
=47	=47	=47	=47
1BB-y	1.B-y	2G	0r
.	.	2F	.
1BB-y	.	1B-y	.
.	2A	.	.
=48	=48	=48	=48
1.E-X	2.G	0B-y	0r
.	4F	.	.
.	1G	.	.
2D	.	.	.
=49	=49	=49	=49
1C	0A	1r	0r
1D	.	1F	.
=50	=50	=50	=50
[0BB-y	0r	1F	1r
.	.	1F	1f
=51	=51	=51	=51
0BB-]	0r	1.B-y	1f
.	.	.	1f
.	.	2A	.
=52	=52	=52	=52
0r	1r	2.G	1.b-y
.	.	4F	.
.	1B-y	[1G	.
.	.	.	2a
=53	=53	=53	=53
1r	1B-y	1G]	1g
1F	1c	1F	1a
=54	=54	=54	=54
1F	1d	1r	0f
1F	[1d	1f	.
=55	=55	=55	=55
1.B-y	1d]	1f	1r
.	1d	1f	[1b-y
2A	.	.	.
=56	=56	=56	=56
1G	1d	1g	1b-]
1A	1c	2e	1a
.	.	[2f	.
=57	=57	=57	=57
1F	2r	4f]	1.a
.	.	4e	.
.	1A	2c	.
1D	.	2.d	.
.	[2d	.	4g
.	.	4c	4f
=58	=58	=58	=58
2E	2d]	2B-y	2g
1F	2c	1A	1a
.	1d	.	.
4E	.	2B-y	4g
4D	.	.	4f
=59	=59	=59	=59
2C	1G	2c	2e
2.BB-y	.	2d	2.d
.	1d	1B-y	.
4C	.	.	4e
4D	.	.	4f
4E	.	.	4g
=60	=60	=60	=60
2F	2c	2A	4a
.	.	.	4b-y
2E	2.e	1G	2.cc
1C	.	.	.
.	4d	.	4b-y
.	4c	2e	4a
.	4B-y	.	4g
=61	=61	=61	=61
2D	2A	2d	2f
2E	2G	2c	1g
1D	1A	1d	.
.	.	.	2f#i
=62	=62	=62	=62
0GG	[0G	1B-y	0g
.	.	1r	.
=63	=63	=63	=63
0r	0G]	0d	0r
=64	=64	=64	=64
0r	0r	1G	0b-y
.	.	[1d	.
=65	=65	=65	=65
0r	0r	2d]	1a
.	.	2c	.
.	.	1B-y	1g
=66	=66	=66	=66
0D	0r	1A	1a
.	.	[1B-y	[1d
=67	=67	=67	=67
1GG	0B-y	2B-]	0d_
.	.	2A	.
[1D	.	1G	.
=68	=68	=68	=68
2D]	1A	1F	1d]
2C	.	.	.
1BB-y	1G	1D	1r
=69	=69	=69	=69
0AA	0A	1E	1r
.	.	2.F	[1a
.	.	4E	.
=70	=70	=70	=70
0r	1D	2F	1a]
.	.	1G	.
.	[1d	.	1a
.	.	2F#i	.
=71	=71	=71	=71
0E-X	2d]	0G	2.b-y
.	4c	.	.
.	4B-y	.	4a
.	2c	.	4g
.	.	.	4f
.	[2B-y	.	[2g
=72	=72	=72	=72
1D	2B-]	1r	4g]
.	.	.	4f
.	2A	.	2.a
1C	2.c	1e-X	.
.	.	.	4g
.	.	.	2g
.	4B-y	.	.
=73	=73	=73	=73
0D	4A	2.d	2f
.	4G	.	.
.	2B-y	.	1g
.	.	4c	.
.	1A	1d	.
.	.	.	2f#i
=	=	=	=
00GG	00G	00B-y	00g
=||	=||	=||	=||
*M2/1	*M2/1	*M2/1	*M2/1
*met(C|)	*met(C|)	*met(C|)	*met(C|)
!!Section: Secunda pars: Quare oblitus
!!!OMD: Secunda pars: Quare oblitus
0r	0r	1d	0r
.	.	2d	.
.	.	2d	.
=74	=74	=74	=74
0r	0r	1d	0r
.	.	1c	.
=75	=75	=75	=75
0r	0r	1B-y	1r
.	.	1c	1a
=76	=76	=76	=76
0r	0r	0d	2a
.	.	.	2a
.	.	.	1a
=77	=77	=77	=77
0r	0r	2r	1g
.	.	2G	.
.	.	2B-y	1f
.	.	2A	.
=78	=78	=78	=78
0r	0r	1B-y	1g
.	.	1c	[1a
=79	=79	=79	=79
1D	0r	1d	1a]
2D	.	1B-y	2r
2D	.	.	2d
=80	=80	=80	=80
1D	0r	0A	2f
.	.	.	1f
1C	.	.	.
.	.	.	2e
=81	=81	=81	=81
1BB-y	1r	2r	2f
.	.	2d	2g
1C	1A	4c	1e
.	.	4B-y	.
.	.	4A	.
.	.	4G	.
=82	=82	=82	=82
0D	2A	2F	0d
.	2A	1G	.
.	1A	.	.
.	.	2F	.
=83	=83	=83	=83
2r	1G	1E	0r
2GG	.	.	.
2BB-y	1F	1D	.
2AA	.	.	.
=84	=84	=84	=84
1BB-y	1G	2r	0r
.	.	2D	.
1C	[1A	2F	.
.	.	2E	.
=85	=85	=85	=85
1D	1A]	1F	0r
1BB-y	2r	1G	.
.	2D	.	.
=86	=86	=86	=86
0AA	2F	2.A	0r
.	2E	.	.
.	.	4G	.
.	1F	4A	.
.	.	4B-y	.
.	.	[2c	.
=87	=87	=87	=87
0r	1G	2c]	2r
.	.	2B-y	2d
.	1A	1c	2f
.	.	.	2e
=88	=88	=88	=88
0r	1F	2A	1f
.	.	1d	.
.	1E	.	1g
.	.	2c	.
=89	=89	=89	=89
0r	2r	2.f	1a
.	2.D	.	.
.	.	4e	.
.	.	4d	1f
.	4E	4c	.
.	2F	[2d	.
=90	=90	=90	=90
0r	2G	2d]	1e
.	2A	2c	.
.	2.B-y	2d	1r
.	.	2G	.
.	4c	.	.
=91	=91	=91	=91
2r	4d	2G	1r
.	4G	.	.
2GG	1d	2G	.
2BB-y	.	[1F	2r
2AA	2c	.	2f
=92	=92	=92	=92
1BB-y	1d	2F]	2f
.	.	2D	2f
1C	2r	1E	1e
.	2G	.	.
=93	=93	=93	=93
1D	2B-y	1F	2d
.	1A	.	1f
1BB-y	.	1D	.
.	2G	.	4e
.	.	.	4d
=94	=94	=94	=94
0AA	2A	2r	2c
.	2F	1A	1d
.	1E	.	.
.	.	2A	2c#i
=95	=95	=95	=95
2r	1D	2B-y	0d
1D	.	2B-y	.
.	1F	2A	.
2D	.	[2B-y	.
=96	=96	=96	=96
2E	2G	4B-]	0r
.	.	4A	.
2E	1B-y	1G	.
1D	.	.	.
.	2A	2F	.
=97	=97	=97	=97
2C	1c	0G	0r
2.E	.	.	.
.	2B-y	.	.
4D	.	.	.
2BB-y	[2d	.	.
=98	=98	=98	=98
1D	4d]	2r	1f
.	4c	.	.
.	2A	2d	.
2C	2c	2e	2g
[2G	2B-y	2d	[2b-y
=99	=99	=99	=99
2G]	2G	2e	2b-]
2F	1d	2f	2a
2A	.	2.e	1cc
2A	2c	.	.
.	.	4f	.
=100	=100	=100	=100
2.G	2e	1g	2b-y
.	1d	.	2.dd
4F	.	.	.
2D	.	2.f	.
.	.	.	4cc
[2F	4c	.	2a
.	4B-y	4e	.
=101	=101	=101	=101
4F]	2A	2c	2.cc
4E	.	.	.
2C	2.c	2.e	.
.	.	.	4b-y
2.E	.	.	2g
.	4B-y	4d	.
.	2G	[2B-y	[2b-y
4D	.	.	.
=102	=102	=102	=102
2BB-y	1d	4B-]	4b-]
.	.	4c	4a
2.B-y	.	2.d	2f
.	2B-y	.	2g
4A	.	4e	.
2F	[2c	2f	[2a
=103	=103	=103	=103
2G	4c]	2e	4a]
.	4B-y	.	4g
2E	4A	2c	1g
.	4G	.	.
1D	1A	1d	.
.	.	.	2f#i
=104	=104	=104	=104
0GG	1G	1d	1g
.	1r	1r	1r
=105	=105	=105	=105
1r	0d	0f	0b-y
1BB-y	.	.	.
=106	=106	=106	=106
1F	1c	1f	1a
1G	1B-y	1e	1g
=107	=107	=107	=107
0F	0c	0f	0a
=108	=108	=108	=108
0BB-y	1B-y	1f	0d
.	1r	1r	.
=109	=109	=109	=109
1r	0B-y	0d	1r
1GG	.	.	1g
=110	=110	=110	=110
1D	1A	1d	1f
1E	1G	1c	[1g
=111	=111	=111	=111
0D	1A	0d	2g]
.	.	.	4f#i
.	.	.	4e
.	[1D	.	1f#i
=112	=112	=112	=112
[0GG	1D]	1B-y	0g
.	2r	1r	.
.	[2G	.	.
=113	=113	=113	=113
1GG]	2G]	1B-y	0r
.	2G	.	.
1r	2F	2A	.
.	2E	2G	.
=114	=114	=114	=114
0r	2D	1d	1f
.	2.B-y	.	.
.	.	2G	2e
.	4A	.	.
.	2B-y	[2d	2d
=115	=115	=115	=115
0r	4F	2d]	1a
.	4G	.	.
.	4A	2c	.
.	4F	.	.
.	2.G	2B-y	2d
.	.	4G	[2g
.	4F	4A	.
=116	=116	=116	=116
0r	2E	4B-y	2g]
.	.	4c	.
.	2D	1d	2f
.	1A	.	1e
.	.	2c#i	.
=117	=117	=117	=117
1BB-y	1D	2d	1d
.	.	2d	.
2AA	1r	2c	1r
2GG	.	2B-y	.
=118	=118	=118	=118
1D	1F	1A	0r
2GG	2E	1r	.
[2D	2D	.	.
=119	=119	=119	=119
2D]	1A	0r	0r
2C	.	.	.
2BB-y	2D	.	.
4GG	[2G	.	.
4AA	.	.	.
=120	=120	=120	=120
4BB-y	2G]	0r	0r
4C	.	.	.
1D	2F	.	.
.	1E	.	.
2C#i	.	.	.
=121	=121	=121	=121
1D	2D	2r	2r
.	2d	2D	2f
2r	2d	[1D	2f
2BB-y	2d	.	[2f
=122	=122	=122	=122
2BB-y	1B-y	2D]	2f]
2BB-y	.	2D	2g
2AA	2c	2E	2a
2GG	[2d	2G	[2b-y
=123	=123	=123	=123
1D	4d]	2G	4b-]
.	4c	.	4a
.	2A	2F	1a
2GG	1B-y	1G	.
[2G	.	.	2g
=124	=124	=124	=124
2G]	1A	2D	1a
2F	.	1d	.
2G	2r	.	1r
2A	[2c	2c	.
=125	=125	=125	=125
2F	2c]	1d	0r
2D	2B-y	.	.
2E	2c	1r	.
[2F	2d	.	.
=126	=126	=126	=126
2F]	2B-y	0r	0r
2E	2G	.	.
1D	2A	.	.
.	[2B-y	.	.
=127	=127	=127	=127
1C	2B-]	2r	0r
.	2A	1c	.
1r	1G	.	.
.	.	2B-y	.
=128	=128	=128	=128
0r	1F	2c	2r
.	.	2d	1f
.	1r	2B-y	.
.	.	2G	2e
=129	=129	=129	=129
0r	2r	2A	2f
.	1G	1B-y	2g
.	.	.	2e-X
.	2A	2A	2c
=130	=130	=130	=130
0r	1B-y	2G	2d
.	.	4E-X	1e-i
.	.	4F	.
.	1E-X	4G	.
.	.	4A	.
.	.	[2B-y	2d
=131	=131	=131	=131
1r	1F	2B-]	1c
.	.	2A	.
2r	1G	1B-y	2B-y
2G	.	.	[2b-y
=132	=132	=132	=132
2G	1r	2r	2b-]
2F	.	1d	2a
2G	2r	.	2b-y
2A	[2c	2c	[2cc
=133	=133	=133	=133
2F	2c]	2A	2cc]
2D	2B-y	2B-y	2f
2E	2c	2G	2r
[2F	2d	2A	2f
=134	=134	=134	=134
2F]	2B-y	2B-y	2g
2E	2G	1c	2g
1D	2A	.	2f
.	[2B-y	2B-y	[2g
=135	=135	=135	=135
0C	2B-]	1c	4g]
.	.	.	4f
.	2A	.	1f
.	1G	2.c	.
.	.	.	2e
.	.	4B-y	.
=136	=136	=136	=136
1r	0F	4A	0f
.	.	4G	.
.	.	1B-y	.
1D	.	.	.
.	.	2A	.
=137	=137	=137	=137
2D	2r	2B-y	[0d
2.BB-y	1B-y	4A	.
.	.	4G	.
.	.	1F	.
4C	.	.	.
4D	[2A	.	.
4E	.	.	.
=138	=138	=138	=138
2F	2A]	2r	0d]
1G	2G	1B-y	.
.	2A	.	.
2F	2D	[2A	.
=139	=139	=139	=139
1G	2r	2A]	2r
.	1d	2G	1b-y
1D	.	1A	.
.	2c	.	[2a
=140	=140	=140	=140
2r	2.B-y	2D	2a]
2B-y	.	2.d	2g
.	4A	.	.
2A	2F	.	1a
.	.	4c	.
2F	[2c	2A	.
=141	=141	=141	=141
1G	2c]	2B-y	2d
.	2B-y	2d	1g
1D	1A	1d	.
.	.	.	2f#i
=	=	=	=
00GG	00G	00d	00g
=||	=||	=||	=||
*M2/1	*M2/1	*M2/1	*M2/1
*met(C|)	*met(C|)	*met(C|)	*met(C|)
!!Section: Tertia pars: Dum dicunt mihi
!!!OMD: Tertia pars: Dum dicunt mihi
0r	0r	1d	0r
.	.	2d	.
.	.	[2c	.
=142	=142	=142	=142
0r	0r	2c]	0r
.	.	4B-y	.
.	.	4A	.
.	.	1G	.
=143	=143	=143	=143
0r	0r	2.F	1a
.	.	4G	.
.	.	2A	2a
.	.	2B-y	[2g
=144	=144	=144	=144
0r	0r	2G	2g]
.	.	1c	4f
.	.	.	4e
.	.	.	1d
.	.	2BnXi	.
=145	=145	=145	=145
0r	0r	2c	2.c
.	.	4A	.
.	.	4B-y	4d
.	.	4c	2e
.	.	4A	.
.	.	[2d	2f
=146	=146	=146	=146
0r	0r	2d]	2d
.	.	2c	1g
.	.	2B-y	.
.	.	2A	2f
=147	=147	=147	=147
0r	0r	1B-y	2g
.	.	.	1b-y
.	.	1c	.
.	.	.	2a
=148	=148	=148	=148
1G	0r	2B-y	1.b-y
.	.	2d	.
2G	.	2d	.
[2F	.	2d	[2a
=149	=149	=149	=149
2F]	0r	4c	2a]
.	.	4B-y	.
4E	.	1B-y	4g
4D	.	.	4f
1C	.	.	1e
.	.	2A	.
=150	=150	=150	=150
2.BB-y	1d	1B-y	2d
.	.	.	1f
4C	.	.	.
2D	2d	1r	.
2E	[2c	.	2g
=151	=151	=151	=151
2C	2c]	0r	2a
1F	4B-y	.	2f
.	4A	.	.
.	1G	.	1b-y
2E	.	.	.
=152	=152	=152	=152
2F	2.F	0r	1a
4D	.	.	.
4E	4G	.	.
4F	2A	.	1r
4D	.	.	.
[2G	2B-y	.	.
=153	=153	=153	=153
2G]	2G	0r	0r
2F	1c	.	.
2E	.	.	.
2D	2B-y	.	.
=154	=154	=154	=154
2E	2c	0r	0r
1F	4A	.	.
.	4B-y	.	.
.	4c	.	.
.	4A	.	.
4E	[2d	.	.
4D	.	.	.
=155	=155	=155	=155
1E	2d]	0r	0r
.	2c#i	.	.
1D	[1d	.	.
=156	=156	=156	=156
2r	0d]	0r	2r
2.B-y	.	.	2.dd
4A	.	.	4cc
2F	.	.	2a
=157	=157	=157	=157
2G	2r	0r	2b-y
2F	2.d	.	2a
[1D	.	.	[1f
.	4c	.	.
.	2A	.	.
=158	=158	=158	=158
1D]	2B-y	2r	0f]
.	2A	2.d	.
1r	1F	.	.
.	.	4c	.
.	.	2A	.
=159	=159	=159	=159
1.D	0r	2B-y	2r
.	.	2A	2.dd
.	.	1F	.
.	.	.	4cc
2D	.	.	2a
=160	=160	=160	=160
[0D	2r	0r	2b-y
.	2.d	.	2a
.	.	.	[1f
.	4c	.	.
.	2A	.	.
=161	=161	=161	=161
0D]	2B-y	2r	0f_
.	2A	2.d	.
.	1F	.	.
.	.	4c	.
.	.	2A	.
=162	=162	=162	=162
2r	1r	2B-y	1f]
1D	.	2A	.
.	2.B-y	1F	1r
2D	.	.	.
.	4B-y	.	.
=163	=163	=163	=163
2.F	2A	0r	0r
.	2c	.	.
4E	.	.	.
4D	2B-y	.	.
4C	.	.	.
2D	[2A	.	.
=164	=164	=164	=164
2C	4A]	0r	0r
.	4G	.	.
2BB-y	1G	.	.
1AA	.	.	.
.	2F#i	.	.
=165	=165	=165	=165
0GG	0G	2r	1r
.	.	1d	.
.	.	.	2.b-y
.	.	2d	.
.	.	.	4b-y
=166	=166	=166	=166
0r	0r	2.f	2a
.	.	.	2cc
.	.	4e	.
.	.	4d	2b-y
.	.	4c	.
.	.	2d	[2a
=167	=167	=167	=167
0r	0r	2c	4a]
.	.	.	4g
.	.	2B-y	1g
.	.	1A	.
.	.	.	2f#i
=168	=168	=168	=168
0r	0r	1G	2g
.	.	.	2b-y
.	.	2r	2a
.	.	2e-X	2g
=169	=169	=169	=169
0r	1r	2d	1a
.	.	2c	.
.	2r	1d	1f
.	2B-y	.	.
=170	=170	=170	=170
2r	2A	2D	0r
2E	2G	2G	.
2D	1A	2F	.
2C	.	2E	.
=171	=171	=171	=171
1D	1F	2D	2r
.	.	1d	1b-y
2GG	1G	.	.
2E	.	2c	4a
.	.	.	4g
=172	=172	=172	=172
2D	0A	2d	2f
2C	.	2e	1g
1D	.	[1d	.
.	.	.	2f#i
=173	=173	=173	=173
0GG	0G	1d]	0g
.	.	1r	.
=174	=174	=174	=174
0r	0r	1.d	1r
.	.	.	[1a
.	.	2d	.
=175	=175	=175	=175
0r	0r	2d	2a]
.	.	2d	2a
.	.	1c	2a
.	.	.	2a
=176	=176	=176	=176
0r	0r	1.e	1g
.	.	.	[1b-y
.	.	2d	.
=177	=177	=177	=177
0r	0r	2.B-y	2b-]
.	.	.	2a
.	.	4c	.
.	.	4d	1f
.	.	4e	.
.	.	[2f	.
=178	=178	=178	=178
0r	0r	2f]	0g
.	.	4e	.
.	.	4d	.
.	.	1e	.
=179	=179	=179	=179
1.D	1r	2f	0f
.	.	2F	.
.	[1A	2F	.
2D	.	[2F	.
=180	=180	=180	=180
2D	2A]	4F]	0r
.	.	4G	.
2D	2A	4A	.
.	.	4B-y	.
1C	2A	4c	.
.	.	4B-y	.
.	2A	[2c	.
=181	=181	=181	=181
1.E-X	1G	2c]	0r
.	.	4B-y	.
.	.	4A	.
.	[1B-y	1G	.
2D	.	.	.
=182	=182	=182	=182
2.BB-y	2B-]	0r	0r
.	2A	.	.
4C	.	.	.
4D	1F	.	.
4E	.	.	.
[2F	.	.	.
=183	=183	=183	=183
2F]	0G	0r	0r
4E	.	.	.
4D	.	.	.
1E	.	.	.
=184	=184	=184	=184
0F	1F	1r	1r
.	1A	1c	1f
=185	=185	=185	=185
1r	1B-y	1d	1g
1BB-y	[1d	[1f	[1b-y
=186	=186	=186	=186
1C	2d]	2f]	2b-]
.	1c	1e-X	2a
[1E-X	.	.	1g
.	4B-y	4d	.
.	4A	4c	.
=187	=187	=187	=187
2E-]	2G	1B-y	2.b-y
2D	2F	.	.
.	.	.	4a
1BB-y	[1B-y	1d	2g
.	.	.	2f
=188	=188	=188	=188
0C	2B-]	0c	0e
.	4A	.	.
.	4G	.	.
.	1A	.	.
=189	=189	=189	=189
[0BB-y	1B-y	1F	1d
.	1r	[1G	1r
=190	=190	=190	=190
0BB-]	0B-y	2G]	1.d
.	.	2F	.
.	.	1G	.
.	.	.	2e
=191	=191	=191	=191
0r	1A	1D	1f
.	1G	[1d	1g
=192	=192	=192	=192
0r	[0A	2d]	2e
.	.	2c	1f
.	.	2d	.
.	.	[2e	2e
=193	=193	=193	=193
0r	0A]	4e]	2.f
.	.	4d	.
.	.	1d	.
.	.	.	4g
.	.	.	1e
.	.	2c#i	.
=194	=194	=194	=194
0r	1D	1d	[0d
.	1r	2r	.
.	.	[2B-y	.
=195	=195	=195	=195
0BB-y	1.D	4B-]	0d]
.	.	4A	.
.	.	1A	.
.	2E	2G	.
=196	=196	=196	=196
1AA	1F	1A	1r
1GG	1G	2D	[1d
.	.	[2B-y	.
=197	=197	=197	=197
[0AA	2E	4B-]	2d]
.	.	4A	.
.	1F	1A	2c
.	.	.	2d
.	2E	[2c	[2e
=198	=198	=198	=198
0AA]	2.F	4c]	4e]
.	.	4B-y	4d
.	.	4A	1d
.	4G	4G	.
.	1E	1A	.
.	.	.	2c#i
=199	=199	=199	=199
1DD	1D	1F	[0d
1r	1r	2r	.
.	.	[2B-y	.
=200	=200	=200	=200
0BB-y	1.D	4B-]	0d]
.	.	4A	.
.	.	1A	.
.	2E	2G	.
=201	=201	=201	=201
1AA	1F	1A	1r
1GG	1G	2D	[1d
.	.	[2B-y	.
=202	=202	=202	=202
[0AA	2E	4B-]	2d]
.	.	4A	.
.	1F	1A	2c
.	.	.	2d
.	2E	[2c	[2e
=203	=203	=203	=203
0AA]	2.F	4c]	4e]
.	.	4B-y	4d
.	.	4A	1d
.	4G	4G	.
.	1E	1A	.
.	.	.	2c#i
=204	=204	=204	=204
1DD	[0Dl	1F	[0dl
[1GG	.	2r	.
.	.	[2B-y	.
=205	=205	=205	=205
2GG]	0D_	4B-]	0d_
.	.	4A	.
2FF	.	1A	.
1GG	.	.	.
.	.	2G	.
=206	=206	=206	=206
[0DDl	0D_	1.A	0d_
.	.	2F	.
=207	=207	=207	=207
00DD]	00D]	00Fl	00d]
==	==	==	==
*-	*-	*-	*-
!!!system-decoration: [*]
!!!RDF**kern: i = editorial accidental
!!!RDF**kern: l = terminal long
!!!ENC: Benjamin Ory
!!!END: 2023/10/24
!!!EED: Benjamin Ory
!!!EEV: 2023/10/24
!!!YEC: Copyright 2023 Benjamin Ory, All Rights Reserved
!!!ONB: Translated from MusicXML on 2023/10/24
